X:12960
T:Peata Beag mo Mh\'athar
R:reel
H:See also #129
D:Michael Tubridy: The Eagle's Whistle
Z:id:hn-reel-795
M:C|
K:D
d2cA BG~G2|ABcd efaf|d2cA BG~G2|1 ABcA d2de:|2 ABcA d3e||
|:fdde fga2|bgaf gbag|fdde fga2|1 bgaf ~g3a:|2 bgaf g2fe||


